src/lib/packages/icons/src/assets/line/file-text-shield.svg

<svg xmlns="http://www.w3.org/2000/svg" width="24" height="24" fill="none"><path fill="currentColor" d="M21.188 15.39c-1.498-.388-2.195-.72-2.835-1.055a.747.747 0 0 0-.69-.002c-.646.333-1.353.668-2.874 1.114a.751.751 0 0 0-.539.72v1.944c0 2.497 1.81 4.012 3.505 4.598a.733.733 0 0 0 .49 0c1.694-.586 3.505-2.101 3.505-4.598v-1.995a.75.75 0 0 0-.562-.726Zm-.938 2.721c0 1.913-1.563 2.791-2.25 3.085-.687-.293-2.25-1.172-2.25-3.085v-1.388a15.102 15.102 0 0 0 2.254-.883c.62.305 1.28.572 2.246.849v1.422ZM13 20.25H6c-1.577 0-2.25-.673-2.25-2.25V6c0-1.577.673-2.25 2.25-2.25h5.25V6c0 2.418 1.332 3.75 3.75 3.75h2.25V12a.75.75 0 0 0 1.5 0V9a.747.747 0 0 0-.22-.53l-6-6a.749.749 0 0 0-.53-.22H6C3.582 2.25 2.25 3.582 2.25 6v12c0 2.418 1.332 3.75 3.75 3.75h7a.75.75 0 0 0 0-1.5ZM12.75 6V4.811l3.439 3.439H15c-1.577 0-2.25-.673-2.25-2.25ZM14 12.75H7a.75.75 0 0 1 0-1.5h7a.75.75 0 0 1 0 1.5Zm-7 4a.75.75 0 0 1 0-1.5h4a.75.75 0 0 1 0 1.5H7Z"/></svg>

<svg width="24" height="24" viewBox="0 0 24 24" fill="none" xmlns="http://www.w3.org/2000/svg">
<path d="M21.188 15.39C19.69 15.002 18.993 14.67 18.353 14.335C18.135 14.222 17.8781 14.221 17.6631 14.333C17.0171 14.666 16.3101 15.001 14.7891 15.447C14.4701 15.541 14.25 15.834 14.25 16.167V18.111C14.25 20.608 16.0609 22.123 17.7549 22.709C17.8339 22.737 17.917 22.75 18 22.75C18.083 22.75 18.1661 22.736 18.2451 22.709C19.9391 22.123 21.75 20.608 21.75 18.111V16.116C21.75 15.774 21.519 15.476 21.188 15.39ZM20.25 18.111C20.25 20.024 18.687 20.902 18 21.196C17.313 20.903 15.75 20.024 15.75 18.111V16.723C16.728 16.416 17.3749 16.148 18.0039 15.84C18.6249 16.145 19.284 16.412 20.25 16.689V18.111ZM13 20.25H6C4.423 20.25 3.75 19.577 3.75 18V6C3.75 4.423 4.423 3.75 6 3.75H11.25V6C11.25 8.418 12.582 9.75 15 9.75H17.25V12C17.25 12.414 17.586 12.75 18 12.75C18.414 12.75 18.75 12.414 18.75 12V9C18.75 8.801 18.671 8.61 18.53 8.47L12.53 2.47C12.389 2.329 12.199 2.25 12 2.25H6C3.582 2.25 2.25 3.582 2.25 6V18C2.25 20.418 3.582 21.75 6 21.75H13C13.414 21.75 13.75 21.414 13.75 21C13.75 20.586 13.414 20.25 13 20.25ZM12.75 6V4.811L16.189 8.25H15C13.423 8.25 12.75 7.577 12.75 6ZM14 12.75H7C6.586 12.75 6.25 12.414 6.25 12C6.25 11.586 6.586 11.25 7 11.25H14C14.414 11.25 14.75 11.586 14.75 12C14.75 12.414 14.414 12.75 14 12.75ZM7 16.75C6.586 16.75 6.25 16.414 6.25 16C6.25 15.586 6.586 15.25 7 15.25H11C11.414 15.25 11.75 15.586 11.75 16C11.75 16.414 11.414 16.75 11 16.75H7Z" fill="currentColor"/>
</svg>
